X: 41586
T: Up And About In The Morning
R: jig
M: 6/8
K: Dmajor
ABA D2A|ABG A2 d|cAA EFG|FAD EFG|
ABA D2A|ABG A2 d|cAA EFG|FAD D2B:|
Ade f2d|ege dcA|AcA EFG|FAD EFA|
Ade f2d|ege dcA|AcA EFG|FAD D3:|
d3 dcA|ded dcA|ABA AGE|ABA BGE|
Dde f2d|ege dcA|A3 EFG|FAD D3:|

